source/img/program-3.svg

<svg width="61" height="60" viewBox="0 0 61 60" fill="none" xmlns="http://www.w3.org/2000/svg">
<rect x="0.5" width="60" height="60" fill="#68B738"/>
<path fill-rule="evenodd" clip-rule="evenodd" d="M37.1173 15.0761C37.491 14.9214 37.9211 15.0069 38.2071 15.2929C39.1156 16.2014 40.3038 18.1706 41.2659 21.2108C42.2373 24.2804 43 28.5081 43 34C43 34.5523 42.5523 35 42 35H38.5V44C38.5 44.5523 38.0523 45 37.5 45C36.9477 45 36.5 44.5523 36.5 44V16C36.5 15.5956 36.7436 15.2309 37.1173 15.0761ZM38.5 33H40.9912C40.9053 28.1836 40.2051 24.4875 39.3591 21.8142C39.0807 20.9346 38.7885 20.1715 38.5 19.519V33Z" fill="white"/>
<path fill-rule="evenodd" clip-rule="evenodd" d="M24.5 15C25.0523 15 25.5 15.4477 25.5 16V44C25.5 44.5523 25.0523 45 24.5 45C23.9477 45 23.5 44.5523 23.5 44V16C23.5 15.4477 23.9477 15 24.5 15Z" fill="white"/>
<path fill-rule="evenodd" clip-rule="evenodd" d="M20 15C20.5523 15 21 15.4477 21 16V21.5C21 22.0569 21.192 22.8152 21.7009 23.4166C22.18 23.9828 23.0145 24.5 24.4999 24.5C25.0522 24.5 25.4999 24.9477 25.4999 25.5C25.4999 26.0523 25.0522 26.5 24.4999 26.5C22.4855 26.5 21.07 25.7672 20.1741 24.7084C19.308 23.6848 19 22.4431 19 21.5V16C19 15.4477 19.4477 15 20 15Z" fill="white"/>
<path fill-rule="evenodd" clip-rule="evenodd" d="M29 15C28.4477 15 28 15.4477 28 16V21.5C28 22.0569 27.808 22.8152 27.2991 23.4166C26.82 23.9828 25.9854 24.5 24.4999 24.5C23.9476 24.5 23.5001 24.9477 23.5001 25.5C23.5001 26.0523 23.9476 26.5 24.4999 26.5C26.5144 26.5 27.93 25.7672 28.8259 24.7084C29.692 23.6848 30 22.4431 30 21.5V16C30 15.4477 29.5523 15 29 15Z" fill="white"/>
</svg>

<svg width="61" height="60" fill="none" xmlns="http://www.w3.org/2000/svg"><path fill="#68B738" d="M.5 0h60v60H.5z"/><path fill-rule="evenodd" clip-rule="evenodd" d="M37.117 15.076a1 1 0 0 1 1.09.217c.909.908 2.097 2.878 3.059 5.918C42.237 24.28 43 28.508 43 34a1 1 0 0 1-1 1h-3.5v9a1 1 0 1 1-2 0V16a1 1 0 0 1 .617-.924ZM38.5 33h2.491c-.086-4.816-.786-8.512-1.632-11.186-.278-.88-.57-1.642-.859-2.295V33ZM24.5 15a1 1 0 0 1 1 1v28a1 1 0 1 1-2 0V16a1 1 0 0 1 1-1Z" fill="#fff"/><path fill-rule="evenodd" clip-rule="evenodd" d="M20 15a1 1 0 0 1 1 1v5.5c0 .557.192 1.315.7 1.917.48.566 1.315 1.083 2.8 1.083a1 1 0 1 1 0 2c-2.015 0-3.43-.733-4.326-1.792A5.068 5.068 0 0 1 19 21.5V16a1 1 0 0 1 1-1Z" fill="#fff"/><path fill-rule="evenodd" clip-rule="evenodd" d="M29 15a1 1 0 0 0-1 1v5.5a3.07 3.07 0 0 1-.7 1.917c-.48.566-1.315 1.083-2.8 1.083a1 1 0 0 0 0 2c2.014 0 3.43-.733 4.326-1.792A5.068 5.068 0 0 0 30 21.5V16a1 1 0 0 0-1-1Z" fill="#fff"/></svg>
